images/implementation/step-2.svg

<svg width="274" height="309" viewBox="0 0 274 309" fill="none" xmlns="http://www.w3.org/2000/svg">
<path d="M40.3711 308.229V271.575L145.127 153.698C154.846 141.757 164.079 129.609 172.826 117.252C181.573 104.756 185.947 92.8157 185.947 81.4307C185.947 68.5184 181.92 59.1466 173.867 53.3152C165.953 47.345 154.152 44.3599 138.463 44.3599C121.941 44.3599 109.445 48.1087 100.976 55.6061C92.645 62.9647 88.4798 75.044 88.4798 91.8438V99.7578H40.5794V89.9695C40.5794 62.6176 49.4652 40.8195 67.237 24.575C85.1476 8.19167 109.098 0 139.088 0C169.077 0 192.472 7.01151 209.272 21.0345C226.211 35.0575 234.68 53.8012 234.68 77.2654C234.68 96.981 229.682 114.197 219.685 128.915C209.827 143.632 196.638 160.293 180.115 178.898L108.681 262.411H241.761V308.229H40.3711Z" fill="#EFEEFF"/>
<path d="M157.743 142.596C172.454 138.403 185.462 136.843 194.621 138.174C203.78 139.505 208.545 143.647 208.128 149.917C207.712 156.188 202.14 164.212 192.332 172.668C182.523 181.124 169.062 189.505 154.17 196.432C139.277 203.358 123.842 208.415 110.408 210.768C96.9743 213.122 86.3443 212.633 80.2707 209.381C74.1971 206.128 73.0424 200.307 76.9971 192.877C80.9518 185.448 89.7797 176.852 102.025 168.509" stroke="#B1ABFF" stroke-width="10"/>
<path d="M139.816 116C134.548 116 133.231 118.951 133.231 120.427L133.231 144.592C133.231 146.989 132.287 149.289 130.606 150.984C128.926 152.679 126.645 153.631 124.268 153.631L103.599 153.631C98.3312 153.631 97.0142 157.32 97.0142 159.165L97.0142 218.6C97.0143 221.624 98.1993 224.523 100.309 226.661C102.418 228.799 105.28 230 108.263 230L175.759 230C178.742 230 181.604 228.799 183.713 226.661C185.823 224.523 187.008 221.624 187.008 218.6L187.008 127.4C187.008 124.376 185.823 121.477 183.713 119.339C181.604 117.201 178.742 116 175.759 116L139.816 116Z" fill="url(#paint0_linear_918_329)"/>
<path d="M97.0078 146.99L97.0142 146.99L97.0142 146.975C97.012 146.98 97.01 146.985 97.0078 146.99Z" fill="url(#paint1_linear_918_329)"/>
<path d="M126.646 143.67L126.646 125.23C126.646 122.257 123.069 120.782 121.004 122.904L103.058 141.344C101.014 143.445 102.489 146.99 105.408 146.99L123.354 146.99C125.172 146.99 126.646 145.504 126.646 143.67Z" fill="url(#paint2_linear_918_329)"/>
<path d="M72.0262 138.054C72.2357 136.975 73.7799 136.975 73.9895 138.054L75.9692 148.248C76.047 148.648 76.36 148.961 76.7602 149.039L86.9535 151.018C88.0326 151.228 88.0326 152.772 86.9535 152.982L76.7602 154.961C76.36 155.039 76.047 155.352 75.9692 155.752L73.9895 165.946C73.7799 167.025 72.2357 167.025 72.0262 165.946L70.0464 155.752C69.9687 155.352 69.6557 155.039 69.2554 154.961L59.0621 152.982C57.983 152.772 57.983 151.228 59.0621 151.018L69.2554 149.039C69.6557 148.961 69.9687 148.648 70.0464 148.248L72.0262 138.054Z" fill="#B1ABFF"/>
<path d="M201.526 112.054C201.736 110.975 203.28 110.975 203.489 112.054L204.412 116.805C204.49 117.205 204.803 117.518 205.203 117.596L209.954 118.518C211.033 118.728 211.033 120.272 209.954 120.482L205.203 121.404C204.803 121.482 204.49 121.795 204.412 122.195L203.489 126.946C203.28 128.025 201.736 128.025 201.526 126.946L200.604 122.195C200.526 121.795 200.213 121.482 199.813 121.404L195.062 120.482C193.983 120.272 193.983 118.728 195.062 118.518L199.813 117.596C200.213 117.518 200.526 117.205 200.604 116.805L201.526 112.054Z" fill="#B1ABFF"/>
<path d="M207.376 145.378C212.987 157.883 188.007 181.27 151.582 197.614C115.157 213.959 81.0797 217.073 75.4688 204.569" stroke="#B1ABFF" stroke-width="10"/>
<path d="M200.526 185.054C200.736 183.975 202.28 183.975 202.489 185.054L203.412 189.805C203.49 190.205 203.803 190.518 204.203 190.596L208.954 191.518C210.033 191.728 210.033 193.272 208.954 193.482L204.203 194.404C203.803 194.482 203.49 194.795 203.412 195.195L202.489 199.946C202.28 201.025 200.736 201.025 200.526 199.946L199.604 195.195C199.526 194.795 199.213 194.482 198.813 194.404L194.062 193.482C192.983 193.272 192.983 191.728 194.062 191.518L198.813 190.596C199.213 190.518 199.526 190.205 199.604 189.805L200.526 185.054Z" fill="#B1ABFF"/>
<defs>
<linearGradient id="paint0_linear_918_329" x1="142.008" y1="116" x2="142.008" y2="230" gradientUnits="userSpaceOnUse">
<stop stop-color="#9396FF"/>
<stop offset="1" stop-color="#6E3AFF"/>
</linearGradient>
<linearGradient id="paint1_linear_918_329" x1="142.008" y1="116" x2="142.008" y2="230" gradientUnits="userSpaceOnUse">
<stop stop-color="#9396FF"/>
<stop offset="1" stop-color="#6E3AFF"/>
</linearGradient>
<linearGradient id="paint2_linear_918_329" x1="142.008" y1="116" x2="142.008" y2="230" gradientUnits="userSpaceOnUse">
<stop stop-color="#9396FF"/>
<stop offset="1" stop-color="#6E3AFF"/>
</linearGradient>
</defs>
</svg>

<svg xmlns="http://www.w3.org/2000/svg" width="274" height="309" fill="none" viewBox="0 0 274 309"><path fill="#efeeff" d="M40.371 308.229v-36.654l104.756-117.877a681 681 0 0 0 27.699-36.446q13.12-18.744 13.121-35.821 0-19.369-12.08-28.116-11.87-8.955-35.404-8.955-24.783 0-37.487 11.246Q88.48 66.644 88.48 91.844v7.914h-47.9V89.97q0-41.028 26.657-65.395Q94.102 0 139.088 0q44.984 0 70.184 21.035 25.408 21.033 25.408 56.23 0 29.573-14.995 51.65-14.786 22.076-39.57 49.983l-71.434 83.513h133.08v45.818z"/><path stroke="#b1abff" stroke-width="10" d="M157.743 142.596c14.711-4.193 27.719-5.753 36.878-4.422s13.924 5.473 13.507 11.743-5.988 14.295-15.796 22.751-23.27 16.837-38.162 23.764c-14.893 6.926-30.328 11.983-43.762 14.336-13.434 2.354-24.064 1.865-30.137-1.387-6.074-3.253-7.229-9.074-3.274-16.504 3.955-7.429 12.783-16.025 25.028-24.368"/><path fill="url(#a)" d="M139.816 116c-5.268 0-6.585 2.951-6.585 4.427v24.165a9.08 9.08 0 0 1-2.625 6.392 8.92 8.92 0 0 1-6.338 2.647h-20.669c-5.268 0-6.585 3.689-6.585 5.534V218.6c0 3.024 1.185 5.923 3.295 8.061a11.17 11.17 0 0 0 7.954 3.339h67.496c2.983 0 5.845-1.201 7.954-3.339a11.48 11.48 0 0 0 3.295-8.061v-91.2c0-3.024-1.185-5.923-3.295-8.061a11.17 11.17 0 0 0-7.954-3.339z"/><path fill="url(#b)" d="M97.008 146.99h.006v-.015z"/><path fill="url(#c)" d="M126.646 143.67v-18.44c0-2.973-3.577-4.448-5.642-2.326l-17.946 18.44c-2.044 2.101-.569 5.646 2.35 5.646h17.946c1.818 0 3.292-1.486 3.292-3.32"/><path fill="#b1abff" d="M72.026 138.054c.21-1.079 1.754-1.079 1.964 0l1.98 10.194a1 1 0 0 0 .79.791l10.194 1.979c1.079.21 1.079 1.754 0 1.964l-10.194 1.979a1 1 0 0 0-.79.791l-1.98 10.194c-.21 1.079-1.754 1.079-1.964 0l-1.98-10.194a1 1 0 0 0-.79-.791l-10.194-1.979c-1.079-.21-1.079-1.754 0-1.964l10.193-1.979a1 1 0 0 0 .791-.791zM201.526 112.054c.21-1.079 1.754-1.079 1.963 0l.923 4.751c.078.4.391.713.791.791l4.751.922c1.079.21 1.079 1.754 0 1.964l-4.751.922c-.4.078-.713.391-.791.791l-.923 4.751c-.209 1.079-1.753 1.079-1.963 0l-.922-4.751a1 1 0 0 0-.791-.791l-4.751-.922c-1.079-.21-1.079-1.754 0-1.964l4.751-.922c.4-.078.713-.391.791-.791z"/><path stroke="#b1abff" stroke-width="10" d="M207.376 145.378c5.611 12.505-19.369 35.892-55.794 52.236-36.425 16.345-70.502 19.459-76.113 6.955"/><path fill="#b1abff" d="M200.526 185.054c.21-1.079 1.754-1.079 1.963 0l.923 4.751c.078.4.391.713.791.791l4.751.922c1.079.21 1.079 1.754 0 1.964l-4.751.922c-.4.078-.713.391-.791.791l-.923 4.751c-.209 1.079-1.753 1.079-1.963 0l-.922-4.751a1 1 0 0 0-.791-.791l-4.751-.922c-1.079-.21-1.079-1.754 0-1.964l4.751-.922c.4-.078.713-.391.791-.791z"/><defs><linearGradient id="a" x1="142.008" x2="142.008" y1="116" y2="230" gradientUnits="userSpaceOnUse"><stop stop-color="#9396ff"/><stop offset="1" stop-color="#6e3aff"/></linearGradient><linearGradient id="b" x1="142.008" x2="142.008" y1="116" y2="230" gradientUnits="userSpaceOnUse"><stop stop-color="#9396ff"/><stop offset="1" stop-color="#6e3aff"/></linearGradient><linearGradient id="c" x1="142.008" x2="142.008" y1="116" y2="230" gradientUnits="userSpaceOnUse"><stop stop-color="#9396ff"/><stop offset="1" stop-color="#6e3aff"/></linearGradient></defs></svg>
